antibot/app/images/dist/vk-service-icon.svg

<svg width="75" height="74" viewBox="0 0 75 74" fill="none" xmlns="http://www.w3.org/2000/svg">
<path d="M0.640015 35.2444C0.640015 18.7074 0.640015 10.4228 5.77944 5.29956C10.9026 0.160156 19.1873 0.160156 35.7242 0.160156H39.3558C55.8929 0.160156 64.1612 0.160156 69.3006 5.29956C74.44 10.439 74.44 18.7074 74.44 35.2444V38.8759C74.44 55.413 74.44 63.6814 69.3006 68.8206C64.1612 73.9602 55.8929 73.9602 39.3558 73.9602H35.7242C19.1873 73.9602 10.9189 73.9602 5.77944 68.8206C0.640015 63.6814 0.640015 55.413 0.640015 38.8759V35.2444Z" fill="#0077FF"/>
<path d="M40.6803 60.9928C53.9768 60.9928 64.756 50.2137 64.756 36.9171C64.756 23.6204 53.9768 12.8413 40.6803 12.8413C27.3835 12.8413 16.6044 23.6204 16.6044 36.9171C16.6044 50.2137 27.3835 60.9928 40.6803 60.9928Z" fill="#00D9ED"/>
<path fill-rule="evenodd" clip-rule="evenodd" d="M63.0958 9.90976V14.5303H67.6515C70.2456 14.5303 71.5749 17.6432 69.7753 19.5076L63.5336 26.0251C62.9821 26.6088 62.204 26.933 61.4098 26.933H55.5082L49.3962 33.5153C49.8337 34.5691 50.0933 35.7367 50.0933 36.9525C50.0933 41.8325 46.1373 45.7882 41.2572 45.7882C36.3774 45.7882 32.4214 41.8325 32.4214 36.9525C32.4214 32.0725 36.3774 28.1166 41.2572 28.1166C42.0842 28.1166 42.8949 28.2301 43.6568 28.4408L50.677 20.8857V16.0381C50.677 15.2275 51.0174 14.4493 51.6011 13.8981L58.1186 7.75348C59.9991 5.9863 63.0795 7.31572 63.0795 9.89355L63.0958 9.90976Z" fill="white"/>
</svg>

<svg width="75" height="74" fill="none" xmlns="http://www.w3.org/2000/svg"><path d="M.64 35.244c0-16.537 0-24.821 5.14-29.944C10.902.16 19.186.16 35.723.16h3.632C55.893.16 64.16.16 69.3 5.3c5.139 5.139 5.139 13.407 5.139 29.944v3.632c0 16.537 0 24.805-5.14 29.945-5.139 5.14-13.407 5.14-29.944 5.14h-3.632c-16.537 0-24.805 0-29.945-5.14C.64 63.68.64 55.413.64 38.876v-3.632Z" fill="#07F"/><path d="M40.68 60.993c13.297 0 24.076-10.78 24.076-24.076 0-13.297-10.78-24.076-24.076-24.076-13.296 0-24.076 10.78-24.076 24.076 0 13.297 10.78 24.076 24.076 24.076Z" fill="#00D9ED"/><path fill-rule="evenodd" clip-rule="evenodd" d="M63.096 9.91v4.62h4.556c2.594 0 3.923 3.113 2.123 4.978l-6.241 6.517a2.932 2.932 0 0 1-2.124.908h-5.902l-6.112 6.582a8.979 8.979 0 0 1 .697 3.438 8.836 8.836 0 0 1-8.836 8.835 8.836 8.836 0 1 1 0-17.671c.827 0 1.638.113 2.4.324l7.02-7.555v-4.848c0-.81.34-1.589.924-2.14l6.518-6.145c1.88-1.767 4.96-.437 4.96 2.14l.017.017Z" fill="#fff"/></svg>
